www/assets/icons/dataset.svg

<svg xmlns="http://www.w3.org/2000/svg" width="24" height="24" viewBox="0 0 24 24" fill='currentColor'><path d="M19 3H5c-1.1 0-2 .9-2 2v14c0 1.1.9 2 2 2h14c1.1 0 2-.9 2-2V5c0-1.1-.9-2-2-2m-8 14H7v-4h4zm0-6H7V7h4zm6 6h-4v-4h4zm0-6h-4V7h4z"/></svg>

<svg width="24" height="24" viewBox="0 0 24 24" xmlns="http://www.w3.org/2000/svg" fill='currentColor'><path d="M19 3H5C3.9 3 3 3.9 3 5V19C3 20.1 3.9 21 5 21H19C20.1 21 21 20.1 21 19V5C21 3.9 20.1 3 19 3ZM11 17H7V13H11V17ZM11 11H7V7H11V11ZM17 17H13V13H17V17ZM17 11H13V7H17V11Z"/></svg>
